X:43
T: Der Essigkrug
N: D0045
O: Europa, Mitteleuropa, Lothringen, Halsdorf ( Kr. Diedenhofen )
N: Inzipit = Transposition zum Lied
R: Scherzlied auf einen Hausstand
M: 2/4
L: 1/16
K: Bb
F2 | B2B2F2F2 | G2G2F2z2 |
B4G2A2 | B4z2
F2 | D2E2F2e2 | d4B2
d2 | c2c2B2A2 | B4z2
FF | B4F2FF | G4F2
F2 | B4G2A2 | B4z2
F2 | B2B2c2e2 | d4B2
d2 | c2c2B2A2 | B4z2

@@@ Tune index: 2565
